X:127
T:RVW2/2/127 Erin's Lovely Home
C:Mr. Woolford, Ramsbury, Wiltshire, 27 August 1904
L:1/8
Q:1/4=120
M:6/8
I:linebreak $
K:G
"^(Editorial suggestion " EF | G2 A B2 B | A2 F D2 E | F2 G E2 D | E3- E2 F |$ G2 A Bcd | e3 d2 c | 
B2 A G2 A | B3 z z E |$ G2 A Bcd | e3 d2 c | B2 A GFE | d3 z z e |$ d2"^(a)" A G2 B | A2 F D2 E | 
F2 G E2 D | !fermata!E4 ||$ EF | G2 A B2 B | A2 F D2 E | F2 G E2 D | E3- E2 F |$ G2 A Bcd | 
e3 d2 c | B2 A G2 A | B3 z z E |$ G2 A Bcd | e3 d2 c | B2 A GFE | d3 z z e |$ 
d2"^(a) var." B A2 G | A2 F D2 E | F2 G E2 D | !fermata!E4 |] 



